build/system/PeopleOutline.svg

<svg xmlns="http://www.w3.org/2000/svg" fill="none" viewBox="0 0 24 24" focusable="false"><path d="M0 0H24V24H0z"/><path fill="#74767B" fill-rule="evenodd" d="M9.82765 3C7.16261 3 5.09129 5.32002 5.3922 7.96802L5.65424 10.274C5.89544 12.3966 7.69141 14 9.82765 14C11.9639 14 13.7599 12.3966 14.0011 10.274L14.2631 7.96803C14.564 5.32002 12.4927 3 9.82765 3ZM14.1723 14C13.7922 14 13.6567 13.5382 13.8947 13.2419C13.9416 13.1835 13.9873 13.1241 14.0319 13.0638C14.196 12.8415 14.4473 12.7003 14.7187 12.6484C15.9438 12.4144 16.9086 11.4076 17.0541 10.1272L17.3161 7.82124C17.497 6.22931 16.4683 4.80463 14.9991 4.40876C14.6467 4.31378 14.3183 4.12676 14.0889 3.84284C14.0392 3.78144 13.9884 3.72105 13.9363 3.66173C13.7152 3.40992 13.8373 3 14.1723 3C16.8374 3 18.9087 5.32002 18.6078 7.96803L18.3458 10.274C18.1046 12.3966 16.3086 14 14.1723 14ZM12.7094 10.1272L12.9714 7.82124C13.1847 5.94439 11.7166 4.3 9.82765 4.3C7.93872 4.3 6.47061 5.94439 6.68389 7.82124L6.94593 10.1272C7.11248 11.5928 8.35258 12.7 9.82765 12.7C11.3027 12.7 12.5428 11.5928 12.7094 10.1272ZM2.11689 19.6984C2.72694 16.9532 5.16182 15 7.97402 15L11.6813 15C14.4935 15 16.9284 16.9532 17.5384 19.6984L17.6384 20.1481C17.7355 20.5853 17.4028 21 16.955 21L2.70028 21C2.25246 21 1.91981 20.5853 2.01695 20.1481L2.11689 19.6984ZM18.7236 20.3058C18.7274 20.6484 18.9716 21 19.3143 21L21.2997 21C21.7475 21 22.0802 20.5853 21.983 20.1481L21.8831 19.6984C21.382 17.4437 19.65 15.7232 17.4889 15.1804C16.9161 15.0365 16.5991 15.726 16.9626 16.1914C17.0977 16.3644 17.2738 16.4628 17.4824 16.5308C18.9407 17.0062 20.1057 18.1788 20.5427 19.7L19.2587 19.7C18.9448 19.7 18.7202 19.9919 18.7236 20.3058ZM11.6813 16.3C13.7872 16.3 15.6229 17.6982 16.198 19.7L3.45729 19.7C4.03238 17.6982 5.86815 16.3 7.97402 16.3L11.6813 16.3Z"/></svg>

<svg xmlns="http://www.w3.org/2000/svg" fill="none" viewBox="0 0 24 24" focusable="false"><path fill="#74767B" fill-rule="evenodd" d="M5.39 7.96A4.46 4.46 0 0 1 9.82 3c2.67 0 4.74 2.32 4.44 4.96L14 10.27A4.216 4.216 0 0 1 9.82 14c-2.13 0-3.93-1.61-4.17-3.73zM14.17 14c-.38 0-.52-.47-.28-.76.05-.06.09-.12.14-.18.16-.22.41-.36.68-.42a2.9 2.9 0 0 0 2.34-2.52l.26-2.3c.18-1.6-.85-3.02-2.32-3.42-.35-.09-.68-.28-.91-.56l-.15-.18c-.22-.26-.1-.66.24-.66a4.46 4.46 0 0 1 4.43 4.96l-.26 2.31A4.206 4.206 0 0 1 14.17 14m-1.2-6.18-.27 2.3a2.893 2.893 0 0 1-2.88 2.58c-1.47 0-2.71-1.11-2.88-2.58l-.26-2.3c-.21-1.88 1.25-3.53 3.14-3.53s3.36 1.65 3.15 3.53M2.11 19.69A6 6 0 0 1 7.97 15h3.71c2.81 0 5.24 1.95 5.85 4.69l.1.45a.7.7 0 0 1-.68.86H2.7c-.45 0-.79-.42-.69-.86zm16.61.61c0 .34.25.7.59.7h1.98c.45 0 .79-.42.69-.86l-.1-.45a6 6 0 0 0-4.4-4.51c-.57-.15-.89.54-.52 1.01.13.17.31.27.52.34 1.46.47 2.62 1.64 3.06 3.17h-1.29c-.31 0-.53.29-.53.6m-7.04-4.01c2.1 0 3.94 1.4 4.51 3.41H3.45a4.704 4.704 0 0 1 4.52-3.41z"/></svg>
